X: 1
T: Branle de la fosse aux loups    [Am]
C: Boris Nortier
%Q: 1/4=156
V: 1
M: 6/8
L: 1/8
K: C
   E|"Am"A2E Ace |  "F"f2e dcA |\
[1,3 "Dm"d2F Bcd |  "C"e2d "Em"cB :|\
[2,4 "Em"cdc BEB | "Am"A4 z :|
|: e| "F"fef afe |  "G"d3  GBd |\
[1,3  "C"ede ged | "Am"cAB cd :|\
[2,4 "Em"edc dcB | "Am"A4  z  :|
